!!!OTL: ELBERFELD DU SCHOENES STAEDTCHEN
!!!ARE: Europa, Mitteleuropa, Deutschland, Hessen, Camberg, Dombach
!!!SCT: E1600A
!!!YEM: Copyright 1995, estate of Helmut Schaffrath.
**kern
*ICvox
*Ivox
*M3/4
*k[b-]
*F:
{8f
8a
=1
4.cc
8dd
8cc
8b-
=2
8b-
8a
4a}
{8g
8a
=3
4.b-
8dd
8cc
8b-
=4
2a}
{8g
8a
=5
4b-
4g
8a
8b-
=6
8cc
8ff
4ff}
{8ee
8dd
=7
4cc
8dd
8cc
8b-
8cc
=8
2a}
{8g
8a
=9
4b-
4g
8a
8b-
=10
8cc
8ff
4ff}
{8ee
8dd
=11
4cc
8dd
8cc
8b-
8cc
=12
2a}
==
!!!AGN: Staende -, Handwerker -, Gesellen - Lied; Abschied, Wanderschaft
!!!ONB: ESAC (Essen Associative Code) Database: ERK3
!!!AMT: simple triple
!!!AIN: vox
!!!EED: Helmut Schaffrath
!!!EEV: 1.0
*-
